X: 10889
T: Drowsy Dragon
R: jig
M: 6/8
K: Ddorian
A,DD FED|[^G2A2][^GA] DEF|GEE cEE|AGF ED^C|
A,DD FED|[^G2A2][^GA] DEF|GEE cEE|ED^C D3:|
|:DFA d^cd|dfe dcB|cGG EGG|ced cBc|
DFA d^cd|dfe dcB|cGF EFG|ADD D3:|

